file/mckesson.svg

<svg clip-rule="evenodd" fill-rule="evenodd" stroke-linejoin="round" stroke-miterlimit="1.41421" viewBox="0 0 560 400" xmlns="http://www.w3.org/2000/svg"><g transform="matrix(1.26422 0 0 1.26422 27.2187 10.4328)"><path d="m66.4 166.5h28.1v9.4h-28.1z" fill="#f7901e"/><path d="m153.4 124.1h38.3v10.1h-25.8v9.6h23.7v10h-23.7v12h25.8v10h-38.3zm-6 0h-15.6s-13.9 17.3-15.8 19.6v-19.6h-11.8v51.8h11.8v-22.9c2.1 2.5 16.2 22.9 16.2 22.9h16.4s-21.7-26.9-22.5-27.8c.8-.9 21.3-24 21.3-24zm-61.3 8.1c2.3 0 4.4.6 6.2 1.7l3.6-8.4c-3.4-1.6-7.6-2.4-12-2.4-12.4 0-20.3 7.1-20.3 19s7.9 19 20.3 19c4.4 0 8.6-.7 12-2.4l-3.6-8.4c-1.8 1.1-3.9 1.7-6.2 1.7-6.1 0-11.1-3-11.1-9.9s5-9.9 11.1-9.9zm-57.1 23.6c-1-3-10.3-31.7-10.3-31.7h-16.5v51.8h11.5v-35.4c1.9 6.1 10.7 35.4 10.7 35.4h8.7s9.3-29.6 11.2-35.5v35.5h11.5v-51.8h-16.5s-9.3 28.7-10.3 31.7zm314.6-6c0 15.8-8.6 27.1-24.5 27.1-16 0-24.5-11.1-24.5-27.1 0-15.9 8.6-26.8 24.5-26.8 15.7.1 24.5 11.1 24.5 26.8zm-12.5.1c0-7.8-3.5-15.9-12-15.9s-12 8.1-12 15.9c0 8.1 3.2 16.2 12 16.2s12-8.2 12-16.2zm55-25.8v33.4c-1.9-3.4-19.2-33.4-19.2-33.4h-15.2v51.8h11.7v-34.3c2 3.4 19.7 34.3 19.7 34.3h14.6v-51.8zm-161.5 20.3c-5.7-1.5-11-2.4-11.1-6.1 0-1 .3-1.9 1.1-2.7 2-1.9 6.5-2.4 10.1-2.2 5.4.4 8.6 1.4 13 3.8l2.5-10.5c-6.6-2.3-11.7-3.8-18.8-3.7-13 .1-21 6.5-21 16.7 0 10.4 9.9 13 18.1 15.4 5.4 1.5 10.8 2.3 10.8 6.3s-6.5 5.4-10.9 5.4c-5.1 0-9.7-1.4-15.2-4.6l-3.4 10.4c7.5 2.9 12 4.2 19.2 4.2 7.9 0 14.4-2.2 18.3-6.1 2.9-2.8 4.4-6.6 4.4-10.9 0-10.4-9.2-13.3-17.1-15.4zm47 0c-5.7-1.5-11-2.4-11.1-6.1 0-1 .4-1.9 1.1-2.7 2-1.9 6.6-2.4 10.1-2.2 5.4.4 8.6 1.4 13 3.8l2.5-10.5c-6.6-2.3-11.6-3.8-18.8-3.7-13 .1-21 6.5-21 16.7 0 10.4 9.9 13 18.1 15.4 5.4 1.5 10.8 2.3 10.8 6.3s-6.5 5.4-10.9 5.4c-5.1 0-9.7-1.4-15.2-4.6l-3.4 10.4c7.4 2.9 12 4.2 19.2 4.2 7.9 0 14.4-2.2 18.4-6.1 2.8-2.8 4.3-6.6 4.3-10.9 0-10.4-9.3-13.3-17.1-15.4z" fill="#0068ac" fill-rule="nonzero"/></g></svg>

<?xml version="1.0" encoding="UTF-8" standalone="no"?>
<!DOCTYPE svg PUBLIC "-//W3C//DTD SVG 1.1//EN" "http://www.w3.org/Graphics/SVG/1.1/DTD/svg11.dtd">
<svg width="100%" height="100%" viewBox="0 0 560 400" version="1.1" xmlns="http://www.w3.org/2000/svg" xmlns:xlink="http://www.w3.org/1999/xlink" xml:space="preserve" xmlns:serif="http://www.serif.com/" style="fill-rule:evenodd;clip-rule:evenodd;stroke-linejoin:round;stroke-miterlimit:1.41421;">
    <g transform="matrix(1.26422,0,0,1.26422,27.2187,10.4328)">
        <rect id="orqnge" x="66.4" y="166.5" width="28.1" height="9.4" style="fill:rgb(247,144,30);"/>
        <path id="blue" d="M153.4,124.1L191.7,124.1L191.7,134.2L165.9,134.2L165.9,143.8L189.6,143.8L189.6,153.8L165.9,153.8L165.9,165.8L191.7,165.8L191.7,175.8L153.4,175.8L153.4,124.1ZM147.4,124.1L131.8,124.1C131.8,124.1 117.9,141.4 116,143.7L116,124.1L104.2,124.1L104.2,175.9L116,175.9L116,153C118.1,155.5 132.2,175.9 132.2,175.9L148.6,175.9C148.6,175.9 126.9,149 126.1,148.1C126.9,147.2 147.4,124.1 147.4,124.1ZM86.1,132.2C88.4,132.2 90.5,132.8 92.3,133.9L95.9,125.5C92.5,123.9 88.3,123.1 83.9,123.1C71.5,123.1 63.6,130.2 63.6,142.1C63.6,154 71.5,161.1 83.9,161.1C88.3,161.1 92.5,160.4 95.9,158.7L92.3,150.3C90.5,151.4 88.4,152 86.1,152C80,152 75,149 75,142.1C75,135.2 80,132.2 86.1,132.2ZM29,155.8C28,152.8 18.7,124.1 18.7,124.1L2.2,124.1L2.2,175.9L13.7,175.9L13.7,140.5C15.6,146.6 24.4,175.9 24.4,175.9L33.1,175.9C33.1,175.9 42.4,146.3 44.3,140.4L44.3,175.9L55.8,175.9L55.8,124.1L39.3,124.1C39.3,124.1 30,152.8 29,155.8ZM343.6,149.8C343.6,165.6 335,176.9 319.1,176.9C303.1,176.9 294.6,165.8 294.6,149.8C294.6,133.9 303.2,123 319.1,123C334.8,123.1 343.6,134.1 343.6,149.8ZM331.1,149.9C331.1,142.1 327.6,134 319.1,134C310.6,134 307.1,142.1 307.1,149.9C307.1,158 310.3,166.1 319.1,166.1C327.9,166.1 331.1,157.9 331.1,149.9ZM386.1,124.1L386.1,157.5C384.2,154.1 366.9,124.1 366.9,124.1L351.7,124.1L351.7,175.9L363.4,175.9L363.4,141.6C365.4,145 383.1,175.9 383.1,175.9L397.7,175.9L397.7,124.1L386.1,124.1ZM224.6,144.4C218.9,142.9 213.6,142 213.5,138.3C213.5,137.3 213.8,136.4 214.6,135.6C216.6,133.7 221.1,133.2 224.7,133.4C230.1,133.8 233.3,134.8 237.7,137.2L240.2,126.7C233.6,124.4 228.5,122.9 221.4,123C208.4,123.1 200.4,129.5 200.4,139.7C200.4,150.1 210.3,152.7 218.5,155.1C223.9,156.6 229.3,157.4 229.3,161.4C229.3,165.4 222.8,166.8 218.4,166.8C213.3,166.8 208.7,165.4 203.2,162.2L199.8,172.6C207.3,175.5 211.8,176.8 219,176.8C226.9,176.8 233.4,174.6 237.3,170.7C240.2,167.9 241.7,164.1 241.7,159.8C241.7,149.4 232.5,146.5 224.6,144.4ZM271.6,144.4C265.9,142.9 260.6,142 260.5,138.3C260.5,137.3 260.9,136.4 261.6,135.6C263.6,133.7 268.2,133.2 271.7,133.4C277.1,133.8 280.3,134.8 284.7,137.2L287.2,126.7C280.6,124.4 275.6,122.9 268.4,123C255.4,123.1 247.4,129.5 247.4,139.7C247.4,150.1 257.3,152.7 265.5,155.1C270.9,156.6 276.3,157.4 276.3,161.4C276.3,165.4 269.8,166.8 265.4,166.8C260.3,166.8 255.7,165.4 250.2,162.2L246.8,172.6C254.2,175.5 258.8,176.8 266,176.8C273.9,176.8 280.4,174.6 284.4,170.7C287.2,167.9 288.7,164.1 288.7,159.8C288.7,149.4 279.4,146.5 271.6,144.4Z" style="fill:rgb(0,104,172);fill-rule:nonzero;"/>
    </g>
</svg>
